!!!COM: Bach, Johann Sebastian
!!!OPR: Joh. Seb. Bachs vierstimmige Choralgesänge
!!!XEN: Four-part Chorales
!!!OTL: 14. Als vierzig Tag' nach Ostern war'n
!!!SCT: BWV 266
!!!SCA: Thematisch-systematisches Verzeichnis der musikalischen Werke Johann Sebastian Bach: Bach-Werke-Verzeichnis (Schmieder)
!!!YOR: Bach Gesellschaft Edition xxxix
!!!ENC: Steven Rasmussen
!!!CDT: 1685/3//-1750/7/28/
!!!OCY: Deutschland
!!!YEC: Copyright (c) 1994, 2000 Center for Computer Assisted Research in the Humanities
!!!YEM: Rights to all derivative editions reserved
!!!YEN: United States of America
**kern	**silbe	**kern	**silbe	**kern	**silbe	**kern	**silbe
*I:[SOPRANO]	*I:[SOPRANO]	*I:[ALTO]	*I:[ALTO]	*I:[TENORE]	*I:[TENORE]	*I:[BASSO]	*I:[BASSO]
*clefG2	*	*clefG2	*	*clefGv2	*	*clefF4	*
*k[f#]	*	*k[f#]	*	*k[f#]	*	*k[f#]	*
*e:	*	*e:	*	*e:	*	*e:	*
*M3/4	*	*M3/4	*	*M3/4	*	*M3/4	*
=1-	=1-	=1-	=1-	=1-	=1-	=1-	=1-
4e/	Als	4B/	.	4G/	.	4E\	.
4e/	vier-	4B/	.	4G/	.	4G\	.
4e/	-zig	4B/	.	4G/	.	4E\	.
=2	=2	=2	=2	=2	=2	=2	=2
2b\	Tag'	2f#/	.	4F#/	.	4D#\	.
.	.	.	.	4d#\	.	4BB/	.
4b\	nach	[4g/	nach	[4e\	nach	4E\	nach
=3	=3	=3	=3	=3	=3	=3	=3
4a/	O-	4g/]	.	4e\]	.	4C#/	O-
4b\	.	4f#/	O-	4B\	.	4D#\	.
8g/L	.	4e/	.	[4B\	O-	4E\	.
8a/J	.	.	.	.	.	.	.
=4	=4	=4	=4	=4	=4	=4	=4
4b\	.	4f#/	.	4B\]	.	4D\	.
4a/	.	8e/L	.	8c\L	.	8C/L	.
.	.	8g/J	.	8e\J	.	8BB/J	.
4a/	-stern	8f#/L	-stern	8d#\L	-stern	4C/	-stern
.	.	8e/J	.	8e\J	.	.	.
=5	=5	=5	=5	=5	=5	=5	=5
2b;\	war'n	2f#;/	.	2d#;\	.	2BB;/	.
4g/	und	8B/L	.	4e\	.	4E\	.
.	.	8c#/J	.	.	.	.	.
=6	=6	=6	=6	=6	=6	=6	=6
4f#/	Chri-	2d/	.	4A/	.	8D/L	.
.	.	.	.	.	.	8C/J	.
4g/	.	.	.	4B\	.	4BB/	.
4a/	-stus	8e/L	.	4c\	.	4AA/	.
.	.	8f#/J	.	.	.	.	.
=7	=7	=7	=7	=7	=7	=7	=7
4b\	wollt'	4.g/	.	4.d\	.	4GG/	.
4a/	.	.	.	.	.	4D\	.
.	.	8f#/	.	8c\	.	.	.
4g/	gen	8f#/L	.	4B\	.	4E\	.
.	.	8e/J	.	.	.	.	.
=8	=8	=8	=8	=8	=8	=8	=8
2g/	Him-	8e/L	.	4.c\	.	4C/	.
.	.	8d/J	.	.	.	.	.
.	.	4c/	.	.	.	4AA/	.
.	.	.	.	8B\	.	.	.
4f#/	-mel	4d/	.	4A/	.	4D\	.
=9	=9	=9	=9	=9	=9	=9	=9
2g;/	fahr'n,	2d;/	.	2B;\	.	2GG;/	.
4a/	b'schied	4f#/	.	4d\	.	4D\	.
=10	=10	=10	=10	=10	=10	=10	=10
2b\	er	2g/	.	2d\	.	4G\	.
.	.	.	.	.	.	4F#\	.
4b\	sein'	4g/	.	8e\L	.	[4E\	sein'
.	.	.	.	8d\J	.	.	.
=11	=11	=11	=11	=11	=11	=11	=11
2a/	J\u3n-	8f#/L	.	4c\	.	4E\]	.
.	.	8e/J	.	.	.	.	.
.	.	4f#/	.	4B\	.	4D#\	J\u3n-
4a/	-ger	4d#/	.	4B\	.	4BB/	-ger
=12	=12	=12	=12	=12	=12	=12	=12
2g/	auf	8e/L	auf	2B\	auf	4E\	auf
.	.	8d#/J	.	.	.	.	.
.	.	2e/	ein	.	.	4GG/	ein
4g/	ein	.	.	4B\	ein	4EE/	.
=13	=13	=13	=13	=13	=13	=13	=13
2.f#;/	Berg,	(4e/	.	2.B;\	.	2.BB;/	.
.	.	2d#;/)	.	.	.	.	.
=14	=14	=14	=14	=14	=14	=14	=14
4e/	auf	4e/	.	4G/	.	4C/	.
4f#/	.	4c/	.	4A/	.	4AA/	.
4d#/	ein	4B/	.	4F#/	.	4BB/	.
=15	=15	=15	=15	=15	=15	=15	=15
2e;/	Berg,	2B;/	.	2G;/	.	2E;\	.
4e/	voll-	4B/	.	4G/	.	4E\	voll-
=16	=16	=16	=16	=16	=16	=16	=16
2a/	-en-	4e/	.	4G/	.	4C#/	-en-
.	.	4d/	.	4F#/	.	8D/L	-det
.	.	.	.	.	.	8Cn/	.
4a/	-det	4c/	.	4F#/	.	8BB/	.
.	.	.	.	.	.	8AA/J	.
=17	=17	=17	=17	=17	=17	=17	=17
2b\	da	4d/	.	4G/	.	4GG/	da
.	.	4e/	.	2B\	sein	8G\L	sein
.	.	.	.	.	.	8F#\	.
4b\	sein	[4f#/	sein	.	.	8E\	.
.	.	.	.	.	.	8D#\J	.
=18	=18	=18	=18	=18	=18	=18	=18
2g/	Amt	4f#/]	.	2B\	Amt	4E\	Amt
.	.	8e/L	Amt	.	.	8EE/L	und
.	.	8d#/J	.	.	.	8FF#/	.
4g/	und	4e/	und	4B\	.	8GG/	.
.	.	.	.	.	.	8AA/J	.
=19	=19	=19	=19	=19	=19	=19	=19
2.f#;/	Werk.	(4e/	.	2.B;\	.	2.BB;/	Werk.
.	.	2d#;/)	.	.	.	.	.
=20	=20	=20	=20	=20	=20	=20	=20
8e/L	Hal-	4B/	.	4G/	Hal-	4EE/	Hal-
8f#/	.	.	.	.	.	.	.
8g/	.	4e/	.	4B\	.	4E\	.
8a/J	.	.	.	.	.	.	.
4b\	.	4f#/	.	8B/L	-le-	4D#\	.
.	.	.	.	8A/J	.	.	.
=21	=21	=21	=21	=21	=21	=21	=21
2b\	-le-	4.e/	.	8G/L	.	8E/L	-le-
.	.	.	.	8F#/	.	8D/	.
.	.	.	.	8E/	.	8C/	.
.	.	8g/L	.	8D#/J	.	8BB/J	.
4a/	-lu-	8f#/	.	4E/	-lu-	4C/	-lu-
.	.	8e/J	.	.	.	.	.
=22	=22	=22	=22	=22	=22	=22	=22
2.b;\	-ja!	2.d#;/	.	2.F#;/	-ja!	2.BB;/	-ja!
==|!	==|!	==|!	==|!	==|!	==|!	==|!	==|!
*-	*-	*-	*-	*-	*-	*-	*-
!!!RWG: Key is interpreted using the Humdrum key tool.
!!!END: 1994/05/06/
!!!KEY: 1587803788
!!!EMD: Converted from MuseData to Humdrum Dec 19, 2000, by Andreas Kornstaedt using muse2kern.
